src/components/gux-icon/icons/ic-exit-full-screen.svg

<svg viewBox="0 0 24 24" xmlns="http://www.w3.org/2000/svg"><path d="M18 13v2h-3v3h-2v-5h5zm-7 0v5H9v-3H6v-2h5zm4-7v3h3v2h-5V6h2zm-4 0v5H6V9h3V6h2z" fill="#444A52" fill-rule="evenodd"/></svg>

<?xml version="1.0" encoding="UTF-8"?>
<svg viewBox="0 0 24 24" version="1.1" xmlns="http://www.w3.org/2000/svg" xmlns:xlink="http://www.w3.org/1999/xlink">
    <!-- Generator: Sketch 64 (93537) - https://sketch.com -->
    <title>ic_exit_fullscreen</title>
    <desc>Created with Sketch.</desc>
    <g id="ic_exit_fullscreen" stroke="none" stroke-width="1" fill="none" fill-rule="evenodd">
        <path d="M18,13 L18,15 L15,15 L15,18 L13,18 L13,13 L18,13 Z M11,13 L11,18 L9,18 L9,15 L6,15 L6,13 L11,13 Z M15,6 L15,9 L18,9 L18,11 L13,11 L13,6 L15,6 Z M11,6 L11,11 L6,11 L6,9 L9,9 L9,6 L11,6 Z" id="Combined-Shape" fill="#444A52"></path>
    </g>
</svg>
